dist/svgs/unicons/line/calendar-slash.svg

<svg xmlns="http://www.w3.org/2000/svg" data-name="Layer 1" viewBox="0 0 24 24"><path d="M11.66 7H15v1a1 1 0 002 0V7h1a1 1 0 011 1v3h-1.34a1 1 0 000 2H19v1.34a1 1 0 102 0V8a3 3 0 00-3-3h-1V4a1 1 0 00-2 0v1h-3.34a1 1 0 000 2zm10.05 13.29l-1.6-1.6-16.4-16.4a1 1 0 00-1.42 1.42l1.91 1.9A3 3 0 003 8v10a3 3 0 003 3h12a3 3 0 001.29-.3l1 1a1 1 0 001.42 0 1 1 0 000-1.41zM5 8a1 1 0 01.66-.93L9.59 11H5zm1 11a1 1 0 01-1-1v-5h6.59l6 6z"/></svg>

<svg xmlns="http://www.w3.org/2000/svg" data-name="Layer 1" viewBox="0 0 24 24"><path d="M11.66,7H15V8a1,1,0,0,0,2,0V7h1a1,1,0,0,1,1,1v3H17.66a1,1,0,0,0,0,2H19v1.34a1,1,0,1,0,2,0V8a3,3,0,0,0-3-3H17V4a1,1,0,0,0-2,0V5H11.66a1,1,0,0,0,0,2ZM21.71,20.29l-1.6-1.6h0L3.71,2.29A1,1,0,0,0,2.29,3.71L4.2,5.61A3,3,0,0,0,3,8V18a3,3,0,0,0,3,3H18a3,3,0,0,0,1.29-.3l1,1a1,1,0,0,0,1.42,0A1,1,0,0,0,21.71,20.29ZM5,8a1,1,0,0,1,.66-.93L9.59,11H5ZM6,19a1,1,0,0,1-1-1V13h6.59l6,6Z"/></svg>
